X:1
T:Angeline the Baker
R:reel
M:4/4
K:D
V:2 clef=alto middle=C
"D"A,2B,2 D3A, | "G"B,2 D4 DD | "D"A,2B,2 D3A, | "Bm"B,6 B,B, |
"D"A,A,2B, D2E2 | FF2E D2E2 | F2EE "G"D2B,B, | "A"A,3B, A,2B,2 :|]
[ |: "D"A2F2 E2DE | F2E2 D2EE | A2F2 E2D2 | "Bm"B,3D B,4 |
"D"A2F2 E2DE | F2E2 D2DE | F2E2 "G"D2B,2 | "A"A,3B, A,2B,2 :|]
